X:1
T:Trusting Jesus, Wonderful Guide
T:Robert Harkness, 1920
T:Trusting Jesus, Wonderful Guide
T:Public Domain
T:Public Domain
C:Robert Harkness, 1920
Z:Public Domain
%%score ( 1 2 ) ( 3 4 )
L:1/8
M:4/4
K:Eb
V:1 treble 
V:2 treble 
V:3 bass 
V:4 bass 
V:1
 [EG]2 [EG]2 [EG] [EB]3 | [DB] [DF]2 [^CG] [DA]4 | [FA]2 [EA]2 [DA] [Dc]3 [Ec] [EB]2 [EG] [EB]4 | %3
w: 1.~Trust- ing Je- sus,|won- der- ful guide,|In His keep- ing safe- ly a- bide;|
w: 2.~Wond- rous prom- ise|He will ful- fill,|Glad- ly do- ing His ho- ly will;|
w: 3.~Friend of sin- ners,|ev- er the same,|Will- ing Sav- ior, praise His dear name,|
 [EG]2 [FB]2 [Ge] [Ge]3 | [Fe] [Fd]2 [Fc] [Ff]4 | [Ge]2 [EG]2 [DF] [FB]3 | %6
w: Joys e- ter- nal|He will im- part;|Get God’s sun- shine|
w: Peace un- end- ing|He will im- part,|Get God’s sun- shine|
w: Full for- give- ness|He will im- part,|Get God’s sun- shine|
 [Ec] [EG]2 [F=A] [FB]4 ||"^Refrain" [GB]2 [GB]2 [GB] [Gc]3 | [EG] [EG]2 [E^F] [EG]4 | %9
w: in- to your heart.|||
w: in- to your heart.|Get God’s suns- hine|in- to your heart,|
w: in- to your heart.|||
 [GB]2 [GB]2 [GB] [Gc]3 | [DA] [DA]2 [^CG] [DA]2 [DF][EG] | [FA]>[=EG] [FA]>[AB] [Ac]2 [Ad][AB] | %12
w: |||
w: Get God’s sun- shine|in- to your heart, It will|cheer you all the day, Drive the|
w: |||
 [Ge][Be][Ae][Fe] [Ge]2 E[EF] | [EG]2 [EB]2 [Ec] [EB]3 | [EG] [DG]2 [B,F] [B,E]4 |] %15
w: |||
w: gloom of life a- way, If you|God’s sun- shine in-|to your heart. *|
w: |||
V:2
 x8 | x8 | x16 | x8 | x8 | x8 | x8 || x8 | x8 | x8 | x8 | x8 | x6 E x | x8 | x8 |] %15
w: |||||||||||||||
w: ||||||||||||get|||
V:3
 [E,B,]2 [B,,B,]2 [E,B,] [G,B,]3 | [F,A,] [B,,A,]2 [B,,=E,] [B,,F,]4 | %2
 [D,B,]2 [C,B,]2 [B,,B,] [B,,A,]3 [E,A,] [E,G,]2 [E,B,] [E,G,]4 | [E,B,]2 [D,B,]2 [C,C] [C,C]3 | %4
 [F,=A,] [F,B,]2 [E,A,] [D,B,]4 | [C,C]2 [E,B,]2 [F,B,] [F,D]3 | [F,=A,] [F,B,]2 [F,C] [B,D]4 || %7
 [E,E]2 [B,,D]2 [E,C] [B,,E]3 | [E,B,] [E,B,]2 [E,=A,] [E,B,]4 | [E,E]2 [B,,D]2 [E,C] [B,,E]3 | %10
 [F,B,] [F,B,]2 [=E,B,] [F,B,]2 [B,,B,][B,,B,] | [B,,B,]>B, [B,D]>[B,D] [B,E]2 [B,F][F,D] | %12
 [E,B,][E,_D][E,C][E,A,] [E,B,]2 [E,G,][C,=A,] | [B,,B,]2 [B,,G,]2 [B,,A,] [B,,G,]3 | %14
 [B,,B,] [B,,B,]2 [B,,A,] [E,G,]4 |] %15
V:4
 x8 | x8 | x16 | x8 | x8 | x8 | x8 || x8 | x8 | x8 | x8 | x3/2 B,/ x6 | x8 | x8 | x8 |] %15

